X: 804
T:Happy Acres Two-Step
C:Cecil "Cec" McEachern, as played by Marcel Robidas
M:2/4
L:1/16
Z:<http://tunes.nhcountrydance.com>.
K:D
|:A2 d2f2|\
"D" a4 a2^ga  | "D" b2a2 f2d2  | "D" [F6A6] A2  | "D" dcBA GFED |
"A7" C3D E2F2 | "A7" G2G2 F2G2 | "D" B2AB A2^G2 | "D" A2A2 d2f2 |
"D" a4 a2^ga  | "D" b2a2 f2d2  | "D" [F6A6] A2  | "D" dcBA GFED |
"A7" C3D E2F2 | "A7" G2A2 B2c2 | "D" d4 d3d     |1 "D" d2      :|2 "D" d2(cd) c2d2 |]
K:A
[|"A" e2{fg}a2 c2A2 | "A"  E3F E2D2  | "A" C2E2 A2B2  | "A" c4 B2A2 |
  "E7" G3A B2c2     | "E7" d4 c2d2   | "A" f2ee e2^d2 | "A" e4 c3d  |
  "A" e2{fg}a2 c2A2 | "A"  E3F E2D2  | "A" C2E2 A2B2  | "A" c4 B2A2 |
  "E7" G3A B2c2     | "E7" d2e2 f2g2 | "A" a4 a3a     | "A" a2 |]



